src/icons/svgs/24/message.svg

<svg width="24" height="24" viewBox="0 0 24 24" fill="none" xmlns="http://www.w3.org/2000/svg">
<g clip-path="url(#clip0)">
<path d="M18.7494 3H5.24991C4.0107 3 3 4.01603 3 5.22995V15.3761C3 16.6218 4.0107 17.606 5.24991 17.606H8.62478V20.5739C8.62478 20.9215 9.01219 21.1234 9.29694 20.9167L13.6878 17.606H18.7501C19.9893 17.606 21 16.59 21 15.3761V5.22995C20.9993 4.01603 20.0185 3 18.7494 3ZM19.3435 15.4397C19.3435 15.7489 19.0886 16.0051 18.781 16.0051H13.1562L10.3439 18.1255V16.0051H5.28155C4.97395 16.0051 4.71907 15.7489 4.71907 15.4397V5.26176C4.71907 4.95254 4.97395 4.69632 5.28155 4.69632H18.781C19.0886 4.69632 19.3435 4.95254 19.3435 5.26176V15.4397Z" fill="black"/>
<g clip-path="url(#clip1)">
<path d="M205.1 -241H-178.9C-214.15 -241 -242.9 -212.25 -242.9 -177.9V109.2C-242.9 144.45 -214.15 172.3 -178.9 172.3H-82.9V256.28C-82.9 266.116 -71.88 271.83 -63.78 265.98L61.12 172.3H205.12C240.37 172.3 269.12 143.55 269.12 109.2V-177.9C269.1 -212.25 241.2 -241 205.1 -241ZM222 111C222 119.75 214.75 127 206 127H46L-34 187V127H-178C-186.75 127 -194 119.75 -194 111V-177C-194 -185.75 -186.75 -193 -178 -193H206C214.75 -193 222 -185.75 222 -177V111Z" fill="black"/>
</g>
</g>
<defs>
<clipPath id="clip0">
<rect width="24" height="24" fill="white"/>
</clipPath>
<clipPath id="clip1">
<rect width="512" height="512" fill="white" transform="translate(-242 -241)"/>
</clipPath>
</defs>
</svg>

<svg width="24" height="24" viewBox="0 0 24 24" xmlns="http://www.w3.org/2000/svg">
    <g clip-path="url(#a)">
        <path d="M18.75 3H5.25C4.01 3 3 4.016 3 5.23v10.146c0 1.246 1.01 2.23 2.25 2.23h3.375v2.968c0 .348.387.55.672.343l4.39-3.311h5.063c1.24 0 2.25-1.016 2.25-2.23V5.23C21 4.016 20.018 3 18.75 3zm.593 12.44a.567.567 0 0 1-.562.565h-5.625l-2.812 2.12v-2.12H5.282a.568.568 0 0 1-.563-.565V5.262c0-.31.255-.566.563-.566H18.78c.308 0 .563.257.563.566V15.44z"/>
        <g clip-path="url(#b)">
            <path d="M205.1-241h-384c-35.25 0-64 28.75-64 63.1v287.1c0 35.25 28.75 63.1 64 63.1h96v83.98c0 9.836 11.02 15.55 19.12 9.7l124.9-93.68h144c35.25 0 64-28.75 64-63.1v-287.1c-.02-34.35-27.92-63.1-64.02-63.1zM222 111c0 8.75-7.25 16-16 16H46l-80 60v-60h-144c-8.75 0-16-7.25-16-16v-288c0-8.75 7.25-16 16-16h384c8.75 0 16 7.25 16 16v288z"/>
        </g>
    </g>
    <defs>
        <clipPath id="a">
            <path fill="#fff" d="M0 0h24v24H0z"/>
        </clipPath>
        <clipPath id="b">
            <path fill="#fff" transform="translate(-242 -241)" d="M0 0h512v512H0z"/>
        </clipPath>
    </defs>
</svg>
